X: 201
T: A Friend In Need
R: jig
M: 6/8
K: Dmajor
|:A|d2f afd|e2fg2b|a2g fed|cdeA2A|
d2fe2g|f2ag2b|agf edc|d3d2:|
|:f|afd afd|A2df2a|gec gec|A2c e2g|
fdf afd|geg bge|agf edc|d3d2:|

